X:1
T:James Gibb editions
T:Psalm 9 (Becker) - Schütz
%%score [ ( 1 2 ) ( 3 4 ) ]
L:1/8
Q:1/4=108
M:3/4
K:F
V:1 treble nm="Soprano Alto"
V:2 treble 
V:3 bass nm="Tenor Bass"
V:4 bass 
V:1
"^Cornelius Becker\n(1561-1604)""^Heinrich Schütz\n(1585-1672)""^Psalm 9, SWV 105" d2 | d4 d2 | %2
w: ~Mit|fröh- li-|
w: und|freu mich|
 c4 B2 | A6 | A4 d2 | e4 f2 | g2 e4 | d6- | d4 :| d2 | d4 d2 | _e4 c2 | d6 | B4 B2 | _e4 e2 | %15
w: chem Ge-|mü-|te dank|ich dir,|höch- ster|Gott,||jagst,|schlägst, bringst|um die|Fein-|de, führst|aus mein|
w: dei- ner|Gü-|te, daß|du mir|hilfst aus|Not,||||||||
 d2 d4 | c6- | c4 || c2 | c4 f2 | _e4 d2 | c6 | c4 d2 | B4 B2 | c2 A4 | G6- | G4 |] %27
w: Sach zu-|recht,||du|Rich- ter|all- ge-|mei-|ne machst|gut, was|arg und|schlecht.||
w: ||||||||||||
V:2
 B2 | B4 B2 | A4 G2 | ^F6 | ^F4 A2 | A4 A2 | B2 A4 | A6- | A4 :| B2 | B4 B2 | B4 A2 | B6 | G4 G2 | %14
 G4 G2 | A2 G4 | G6- | G4 || F2 | F4 A2 | G4 B2 | A6 | A4 A2 | G4 G2 | G2 ^F4 | G6- | G4 |] %27
V:3
 G2 | G4 F2 | F4 D2 | D6 | D4 =F2 | E4 D2 | D2 ^C4 | D6- | D4 :| F2 | F4 F2 | G4 F2 | F6 | %13
 _E4 B,2 | C4 C2 | C2 =B,4 | C6- | C4 || %18
"^2. Die Heiden tust du strafen, bringst die Gottlosen um,\nzerbrichst ihr Wehr und Waffen, ihr Nam' vergeht samt ihn' n.\nEwig dein Nam' wird bleiben, dein Richtstuhl ist bereit,\nniemand wird's hintertreiben, wann du regierst die Leut.\n\n3. Du bist der Schutz des Armen, ein' Zuflucht in der Not,\nläßt dich seins Leids erbarmen; drum auf dich frommen Gott\nhoffen all, die dich kennen, und ehr'n den Namen dein,\nwirst dich ihrer nicht schämen, ihr Helfer stets zu sein.\n\n5. Nur Gnad, Herr, ich begehre, sieh an mein Elend groß,\ndein Hülf' mir doch gewähre, sonst mich der Feind find't bloß,\ndu hilfst aus Todesnöten, d'rob will ich fröhlich sein,\ndein Lob und Preis vertreten in christlicher Gemein'.\n\n8. Steh auf, Herr Gott, beizeiten, laß gehen dein Gericht,\ndamit die bösen Leute Oberhand kriegen nicht,\ngib's ihnen zu verstehen, daß sie nur Menschen sind,\nauch ihr Trutz muß vergehen vor deiner Macht geschwind." A,2 | %19
 A,4 D2 | B,4 F2 | F6 | F4 F2 | D4 D2 | _E2 D4 | D6- | D4 |] %27
V:4
 G,2 | G,4 B,2 | F,4 G,2 | D,6 | D,4 D2 | ^C4 D2 | G,2 A,4 | D,6- | D,4 :| B,2 | B,4 B,2 | %11
 _E,4 F,2 | B,6 | _E,4 E,2 | C,4 _E,2 | F,2 G,4 | C,6- | C,4 || F,2 | F,4 D,2 | _E,4 B,,2 | F,6 | %22
 F,4 D,2 | G,4 G,2 | C,2 D,4 | G,6- | G,4 |] %27

